X: 36272
T: Seamus Begley's
R: slide
M: 12/8
K: Dmajor
|:F3 E2 D F3 A|BcB A2 B d2 A|1 def d2 B ABA AFA|
BAF BAF E3 EDE:|2 def d2 B ABA AFD|E3 F2 E D3 D2 B||
|:A2 F A2 B AFE D2 B|AFA B3 BAF E2 B|A2 F A2 B AFE D2 c|
[1 dcB AFE F2 D D2 F:|2 dcB AFE F2 D D2 E||

